**harm	**harte	**timestamp	**phrase	**leadinstrument	**kern
*M4/4	*M4/4	*	*	*	*
*A:	*A:	*	*	*	*A:
1r;	N	0	.	r	1r;
=1	=1	=1	=1	=1	=1
*>A_intro	*>A_intro	*>A_intro	*>A_intro	*>A_intro	*>A_intro
2.I	A:maj	0.488	newline	guitar	2A 2cc# 2ee
4IVc	D:maj/5	2.127	.	guitar	4d 4f# 4A
=2	=2	=2	=2	=2	=2
1I	A:maj	2.674	.	guitar	1A 1cc# 1ee
=3	=3	=3	=3	=3	=3
2.I	A:maj	4.86	.	guitar	2A 2cc# 2ee
4IVc	D:maj/5	6.499	.	guitar	4d 4f# 4A
=4	=4	=4	=4	=4	=4
1I	A:maj	7.046	.	guitar	1A 1cc# 1ee
=5	=5	=5	=5	=5	=5
*>B_verse	*>B_verse	*>B_verse	*>B_verse	*>B_verse	*>B_verse
1I	A:maj	9.232	newline	voice	1A 1cc# 1ee
=6	=6	=6	=6	=6	=6
1IV	D:maj	11.388	.	voice	1D 1f# 1a
=7	=7	=7	=7	=7	=7
1V	E:maj	13.544	.	voice	1E 1g# 1b
=8	=8	=8	=8	=8	=8
1I	A:maj	15.7	.	voice	1A 1cc# 1ee
=9	=9	=9	=9	=9	=9
1I	A:maj	17.856	newline	voice	1A 1cc# 1ee
=10	=10	=10	=10	=10	=10
1IV	D:maj	20.026	.	voice	1D 1f# 1a
=11	=11	=11	=11	=11	=11
1V	E:maj	22.197	.	voice	1E 1g# 1b
=12	=12	=12	=12	=12	=12
1I	A:maj	24.367	.	voice	1A 1cc# 1ee
=13	=13	=13	=13	=13	=13
1ii7	B:min7	26.538	newline	voice	1B 1dd 1ff# 1aa
=14	=14	=14	=14	=14	=14
1IV	D:maj	28.688	.	voice	1D 1f# 1a
=15	=15	=15	=15	=15	=15
1V	E:maj	30.839	.	voice	1E 1g# 1b
=16	=16	=16	=16	=16	=16
1V	E:maj	32.989	.	voice	1E 1g# 1b
=17	=17	=17	=17	=17	=17
*>C_chorus	*>C_chorus	*>C_chorus	*>C_chorus	*>C_chorus	*>C_chorus
1IV	D:maj	35.139	newline	voice	1D 1f# 1a
=18	=18	=18	=18	=18	=18
1I	A:maj	37.299	.	voice	1A 1cc# 1ee
=19	=19	=19	=19	=19	=19
1IV	D:maj	39.459	.	voice	1D 1f# 1a
=20	=20	=20	=20	=20	=20
1V	E:maj	41.618	.	voice	1E 1g# 1b
=21	=21	=21	=21	=21	=21
2I	A:maj	43.778	newline	voice	2A 2cc# 2ee
2iii7	C#:min7	44.849	.	voice	2C# 2e 2g# 2b
=22	=22	=22	=22	=22	=22
2IV	D:maj	45.921	.	voice	2D 2f# 2a
2V	E:maj	46.992	.	voice	2E 2g# 2b
=23	=23	=23	=23	=23	=23
2IV	D:maj	48.064	.	voice	2D 2f# 2a
2V	E:maj	49.135	.	voice	2E 2g# 2b
=24	=24	=24	=24	=24	=24
2.I	A:maj	50.206	newline	voice	2A 2cc# 2ee
4IVc	D:maj/5	51.832	.	voice	4d 4f# 4A
=25	=25	=25	=25	=25	=25
1I	A:maj	52.374	.	voice	1A 1cc# 1ee
=26	=26	=26	=26	=26	=26
*>B_verse	*>B_verse	*>B_verse	*>B_verse	*>B_verse	*>B_verse
1I	A:maj	54.541	newline	voice	1A 1cc# 1ee
=27	=27	=27	=27	=27	=27
1IV	D:maj	56.686	.	voice	1D 1f# 1a
=28	=28	=28	=28	=28	=28
1V	E:maj	58.83	.	voice	1E 1g# 1b
=29	=29	=29	=29	=29	=29
1I	A:maj	60.974	.	voice	1A 1cc# 1ee
=30	=30	=30	=30	=30	=30
1I	A:maj	63.119	newline	voice	1A 1cc# 1ee
=31	=31	=31	=31	=31	=31
1IV	D:maj	65.282	.	voice	1D 1f# 1a
=32	=32	=32	=32	=32	=32
1V	E:maj	67.446	.	voice	1E 1g# 1b
=33	=33	=33	=33	=33	=33
1I	A:maj	69.609	.	voice	1A 1cc# 1ee
=34	=34	=34	=34	=34	=34
1ii7	B:min7	71.773	newline	voice	1B 1dd 1ff# 1aa
=35	=35	=35	=35	=35	=35
1IV	D:maj	73.909	.	voice	1D 1f# 1a
=36	=36	=36	=36	=36	=36
1V	E:maj	76.046	.	voice	1E 1g# 1b
=37	=37	=37	=37	=37	=37
1V	E:maj	78.183	.	voice	1E 1g# 1b
=38	=38	=38	=38	=38	=38
*>C_chorus	*>C_chorus	*>C_chorus	*>C_chorus	*>C_chorus	*>C_chorus
1IV	D:maj	80.32	newline	voice	1D 1f# 1a
=39	=39	=39	=39	=39	=39
1I	A:maj	82.478	.	voice	1A 1cc# 1ee
=40	=40	=40	=40	=40	=40
1IV	D:maj	84.637	.	voice	1D 1f# 1a
=41	=41	=41	=41	=41	=41
1V	E:maj	86.796	.	voice	1E 1g# 1b
=42	=42	=42	=42	=42	=42
2I	A:maj	88.954	newline	voice	2A 2cc# 2ee
2iii7	C#:min7	90.038	.	voice	2C# 2e 2g# 2b
=43	=43	=43	=43	=43	=43
2IV	D:maj	91.121	.	voice	2D 2f# 2a
2V	E:maj	92.205	.	voice	2E 2g# 2b
=44	=44	=44	=44	=44	=44
2IV	D:maj	93.288	.	voice	2D 2f# 2a
2V	E:maj	94.372	.	voice	2E 2g# 2b
=45	=45	=45	=45	=45	=45
2.I	A:maj	95.455	newline	voice	2A 2cc# 2ee
4IVc	D:maj/5	97.064	.	voice	4d 4f# 4A
=46	=46	=46	=46	=46	=46
1I	A:maj	97.6	.	voice	1A 1cc# 1ee
=47	=47	=47	=47	=47	=47
*>D_bridge	*>D_bridge	*>D_bridge	*>D_bridge	*>D_bridge	*>D_bridge
1IIM7	B:maj7	99.746	newline	voice	1B 1dd# 1ff# 1aa
=48	=48	=48	=48	=48	=48
1V	E:maj	101.897	.	voice	1E 1g# 1b
=49	=49	=49	=49	=49	=49
1IIM7	B:maj7	104.048	.	voice	1B 1dd# 1ff# 1aa
=50	=50	=50	=50	=50	=50
1V	E:maj	106.2	.	voice	1E 1g# 1b
=51	=51	=51	=51	=51	=51
1IIM7	B:maj7	108.351	newline	voice	1B 1dd# 1ff# 1aa
=52	=52	=52	=52	=52	=52
1V	E:maj	110.483	.	voice	1E 1g# 1b
=53	=53	=53	=53	=53	=53
1IV	D:maj	112.615	.	voice	1D 1f# 1a
=54	=54	=54	=54	=54	=54
1V	E:maj	114.748	.	voice	1E 1g# 1b
=55	=55	=55	=55	=55	=55
1V	E:maj	116.88	.	voice	1E 1g# 1b
=56	=56	=56	=56	=56	=56
*>E_trans	*>E_trans	*>E_trans	*>E_trans	*>E_trans	*>E_trans
1-VII	G:maj	119.012	newline	voice	1G 1b 1dd
=57	=57	=57	=57	=57	=57
1IV	D:maj	121.121	.	voice	1D 1f# 1a
=58	=58	=58	=58	=58	=58
1I	A:maj	123.229	.	voice	1A 1cc# 1ee
=59	=59	=59	=59	=59	=59
1I	A:maj	125.338	.	voice	1A 1cc# 1ee
=60	=60	=60	=60	=60	=60
*>B_verse	*>B_verse	*>B_verse	*>B_verse	*>B_verse	*>B_verse
1I	A:maj	127.447	newline	voice	1A 1cc# 1ee
=61	=61	=61	=61	=61	=61
1IV	D:maj	129.587	.	voice	1D 1f# 1a
=62	=62	=62	=62	=62	=62
1V	E:maj	131.728	.	voice	1E 1g# 1b
=63	=63	=63	=63	=63	=63
1I	A:maj	133.869	.	voice	1A 1cc# 1ee
=64	=64	=64	=64	=64	=64
1I	A:maj	136.009	newline	voice	1A 1cc# 1ee
=65	=65	=65	=65	=65	=65
1IV	D:maj	138.149	.	voice	1D 1f# 1a
=66	=66	=66	=66	=66	=66
1V	E:maj	140.288	.	voice	1E 1g# 1b
=67	=67	=67	=67	=67	=67
1I	A:maj	142.427	.	voice	1A 1cc# 1ee
=68	=68	=68	=68	=68	=68
1ii7	B:min7	144.566	newline	voice	1B 1dd 1ff# 1aa
=69	=69	=69	=69	=69	=69
1IV	D:maj	146.688	.	voice	1D 1f# 1a
=70	=70	=70	=70	=70	=70
1V	E:maj	148.809	.	voice	1E 1g# 1b
=71	=71	=71	=71	=71	=71
1V	E:maj	150.931	.	voice	1E 1g# 1b
=72	=72	=72	=72	=72	=72
*>C2_chorus	*>C2_chorus	*>C2_chorus	*>C2_chorus	*>C2_chorus	*>C2_chorus
1IV	D:maj	153.053	newline	voice	1D 1f# 1a
=73	=73	=73	=73	=73	=73
1I	A:maj	155.208	.	voice	1A 1cc# 1ee
=74	=74	=74	=74	=74	=74
1IV	D:maj	157.364	.	voice	1D 1f# 1a
=75	=75	=75	=75	=75	=75
1V	E:maj	159.519	.	voice	1E 1g# 1b
=76	=76	=76	=76	=76	=76
2I	A:maj	161.674	newline	voice	2A 2cc# 2ee
2iii7	C#:min7	162.755	.	voice	2C# 2e 2g# 2b
=77	=77	=77	=77	=77	=77
2IV	D:maj	163.836	.	voice	2D 2f# 2a
2V	E:maj	164.917	.	voice	2E 2g# 2b
=78	=78	=78	=78	=78	=78
2IV	D:maj	165.998	.	voice	2D 2f# 2a
2V	E:maj	167.079	.	voice	2E 2g# 2b
=79	=79	=79	=79	=79	=79
1I	A:maj	168.16	newline	voice	1A 1cc# 1ee
=80	=80	=80	=80	=80	=80
2I	A:maj	170.292	newline	voice	2A 2cc# 2ee
2iii7	C#:min7	171.377	.	voice	2C# 2e 2g# 2b
=81	=81	=81	=81	=81	=81
2IV	D:maj	172.462	.	voice	2D 2f# 2a
2V	E:maj	173.547	.	voice	2E 2g# 2b
=82	=82	=82	=82	=82	=82
2IV	D:maj	174.632	.	voice	2D 2f# 2a
2V	E:maj	175.717	.	voice	2E 2g# 2b
=83	=83	=83	=83	=83	=83
1-VII	G:maj	176.803	newline	voice	1G 1b 1dd
=84	=84	=84	=84	=84	=84
1IV	D:maj	178.992	.	voice	1D 1f# 1a
=85	=85	=85	=85	=85	=85
1I	A:maj	181.182	.	voice	1A 1cc# 1ee
1r;	N	187.204	.	r	1r;
1r;	N	188.81	.	r	1r;
*-	*-	*-	*-	*-	*-
!!!OTL: Come Monday
!!!COC: Jimmy Buffett
!!!BillboardChartDate: 1974/08/10
!!!BillboardPeak: 30
!!!BillboardWeeksOnChart: 14
!!!SampleTargetRank: 45
!!!SampleActualRank: 45
!!!SampleID#: 0758
!!!RDF**harmony: **recip + pitch class of root + harmonic quality
!!!RDF**harte: Chris Harte's syntax, used by MIREX
!!!RDF**phrase: newline = linebreak in original McGill transcription
!!!RDF**timestamp: McGill audio timestamp in seconds
!!!RDF**leadinstrument: original McGill primary instrumentation annotation
!!!RDT: 2017/01/12/
!!!ENC: Nathaniel Condit-Schultz
!!!EST: Awating manual error checking and editing.
